X: 1
T: Jim And Sylvia Barnes
M: 4/4
L: 1/8
R: reel
K: Edor
|:F|G2BG F2AF|GE~E2 B,EGE|FD~D2 DA,B,C|DBAF GFEF|
G2G/G/G F2F/F/F|Eeef edBd|BG~G2 AF~F2|EGFD E3:|
|:F|Ee~e2 e2ef|g2fg edBc|dF~F2 AFEF|DEFA Bgfd|
Be~e2 e2ef|g2fg edBd|BG~G2 AF~F2|EGFD E3:|
